icons/bell-slash-16.svg

<svg width="16" height="16" viewBox="0 0 16 16" xmlns="http://www.w3.org/2000/svg">
  <path fill-rule="evenodd" clip-rule="evenodd" d="M8.00005 1.5C7.00314 1.5 6.1046 1.91582 5.4662 2.58554C5.1804 2.88536 4.70566 2.89673 4.40584 2.61093C4.10602 2.32513 4.09465 1.85039 4.38045 1.55057C5.29016 0.596222 6.5761 0 8.00005 0C10.7615 0 13.0001 2.23858 13.0001 5V7.37362C13.0001 7.78783 12.6643 8.12362 12.2501 8.12362C11.8358 8.12362 11.5001 7.78783 11.5001 7.37362V5C11.5001 3.067 9.93305 1.5 8.00005 1.5ZM4.1824 4.3095L1.18994 2.14254C0.854447 1.8996 0.385538 1.97462 0.142598 2.31011C-0.100343 2.6456 -0.0253172 3.11451 0.310172 3.35745L3.00005 5.30529V7.94722C3.00005 7.99658 2.98544 8.04483 2.95807 8.0859L1.25493 10.6406C1.08874 10.8899 1.00005 11.1828 1.00005 11.4824C1.00005 12.3206 1.6795 13 2.51765 13H13.6261L14.8102 13.8574C15.1457 14.1004 15.6146 14.0254 15.8575 13.6899C16.1005 13.3544 16.0254 12.8855 15.6899 12.6425L14.3154 11.6472C14.3108 11.6438 14.3062 11.6405 14.3016 11.6372L4.19778 4.32063C4.1927 4.31686 4.18758 4.31314 4.1824 4.3095ZM11.5546 11.5L4.50005 6.3915V7.94722C4.50005 8.29272 4.39779 8.63048 4.20614 8.91795L2.50301 11.4726C2.50108 11.4755 2.50005 11.4789 2.50005 11.4824C2.50005 11.4862 2.50068 11.488 2.50113 11.489C2.50179 11.4906 2.50307 11.4927 2.50521 11.4948C2.50734 11.497 2.50947 11.4983 2.51103 11.4989C2.51209 11.4994 2.51383 11.5 2.51765 11.5H11.5546ZM8.00005 16C9.02013 16 9.86184 15.2363 9.98464 14.2495C10.0017 14.1125 9.88812 14 9.75005 14H6.25005C6.11198 14 5.99841 14.1125 6.01546 14.2495C6.13827 15.2363 6.97998 16 8.00005 16Z"/>
</svg>

<svg xmlns="http://www.w3.org/2000/svg" width="16" height="16" viewBox="0 0 16 16"><path fill-rule="evenodd" d="M8 1.5c-.997 0-1.895.416-2.534 1.086A.75.75 0 014.38 1.55 5 5 0 0113 5v2.373a.75.75 0 01-1.5 0V5A3.5 3.5 0 008 1.5zM4.182 4.31L1.19 2.143a.75.75 0 10-.88 1.214L3 5.305v2.642a.25.25 0 01-.042.139L1.255 10.64A1.518 1.518 0 002.518 13h11.108l1.184.857a.75.75 0 10.88-1.214l-1.375-.996a1.196 1.196 0 00-.013-.01L4.198 4.321a.733.733 0 00-.016-.011zm7.373 7.19L4.5 6.391v1.556c0 .346-.102.683-.294.97l-1.703 2.556a.018.018 0 00-.003.01.015.015 0 00.005.012.017.017 0 00.006.004l.007.001h9.037zM8 16a2 2 0 001.985-1.75c.017-.137-.097-.25-.235-.25h-3.5c-.138 0-.252.113-.235.25A2 2 0 008 16z"/></svg>
